X: 3165
T: LUNDIN LINKS
C: Jos Lowe
Q: "Strathspey."
R: Strathspey.
%R: strathspey
B: James Kerr "Merry Melodies" v.3 p.20 #165
Z: 2016 John Chambers <jc:trillian.mit.edu>
M: C
L: 1/8
K: F
|:\
(vA<c) uc>uf d>cA>F | (D<F) C>F D>FC>B |\
(A<c) c>f d>cA>F | (D<G) (G>F) [G3G,3] B :|
|:\
(A<c) (c<f) a>gf>d | c>Af>e dcBA |\
(d<g) g>a b>ag>f |[1 (3def (3cBA [G3G,3] c :|\
[2 (3def (3efg [f3A3] c |]

%%sep 1 1 500
%%sep 1 1 500

